X:33
T:Breton An Dro
M:C|
L:1/8
R:An Dro / March
K:EDor
EFGF E2 B2 | G2 E2 F2 B2 | ABAG F3E | GEGE F4 |
EFGF E2 B2 | G2 E2 F2 B2 | ABAG F3E | GEFD E4 :|
EFGA B4 | A2 d2 B2 G2 | EFGB A4 | ABAG F4 |
EFGA B4 | A2 d2 B2 G2 | EFGB A3E | GEFD E4 :|

